X:47
T:Hungarian Waltz, The
S:John Moore's Book 2
Z:Transcribed Steve Mansfield 04/2021
%%VWML: Moore2-4494-p36-0
F:http://www.vwml.org/record/Moore2/4494/p36
M:3/8
L:1/8
K:G
(B/d/) | gf (A/c/) | ed (B/d/) | dc (A/c/) | ed (B/d/) | 
gf (A/c/) | ed (B/d/) | dc (A/F/) | G2 :|
|: B/d/ |(3c/d/c/ Ac | ed (B/d/) | (3c/d/c/ Ac | ed (B/d/) | 
gf (A/c/) | ed (B/d/) | dc (A/F/) | G2 :|
|: d | dba | gBd | cAf | gbd | 
dba | gBd | cAf | G2 :|
|: d | cAf | gbd | cAf | gbd | 
fba | gBd | cAf | G2 :|

